site/static/img/page-produits/culotte.svg

<svg height="143" viewBox="0 0 143 143" width="143" xmlns="http://www.w3.org/2000/svg" xmlns:xlink="http://www.w3.org/1999/xlink"><mask id="a" fill="#fff"><path d="m.23403416 0h100.65970584v69.3739583h-100.65970584z" fill="#fff" fill-rule="evenodd"/></mask><mask id="b" fill="#fff"><path d="m.23403416 0h100.65970584v70.85h-100.65970584z" fill="#fff" fill-rule="evenodd"/></mask><g fill="none" fill-rule="evenodd"><circle cx="71.5" cy="71.5" fill="#ffd8dd" r="71.5"/><g transform="matrix(.98480775 -.17364818 .17364818 .98480775 15.41876 53.542148)"><path d="m98.6734502 0c-14.0627737 4.428125-72.5343066 8.11822917-96.21897808 0l-2.22043796 15.4984375s34.78686134 39.1151042 36.26715324 51.6614583c0 0 5.1810219 2.2140625 13.3226278 2.2140625 8.1416058 0 14.8029197-2.2140625 14.8029197-2.2140625 1.480292-12.5463541 36.2671531-51.6614583 36.2671531-51.6614583z" fill="#c5e2e0" mask="url(#a)"/><path d="m25.8450096 47.347579s17.3171957-2.3284558 23.2383635-2.3284558c5.9211679 0 26.1996876 2.3284558 26.1996876 2.3284558s-9.0334817 11.7212468-10.6566219 19.8121692c-.740146 3.6901042-27.3854014 2.9520834-28.1255474 0-.740146-2.9520833-10.6558818-19.8121692-10.6558818-19.8121692" fill="#e7364b"/><path d="m98.6734502 0c-15.2062993 3.44581927-47.3042102 4.31742187-50.7 4.41779271-3.3957898-.10037084-30.3126788-.97197344-45.51897808-4.41779271l-2.22043796 16.2364583s26.64525544 6.6421875 31.08613134 16.9744792c11.8719417 27.6211677 8.8817519 28.0447917 5.1810219 33.9489583 0 0 1.4536468 3.6901042 11.8423358 3.6901042 10.3620438 0 15.5430657-1.4760417 16.2832117-3.6901042 1.0465664-3.1314224-9.8580044-5.5506547 0-33.9489583 6.6613139-19.1885417 36.2671531-17.7125 36.2671531-17.7125z" fill="#fff" mask="url(#b)"/><path d="m53.5245451 21.7716146c0 2.6494948-2.1538248 4.7971354-4.8109489 4.7971354s-4.8109489-2.1476406-4.8109489-4.7971354 5.1810219-10.7013021 5.1810219-10.7013021 4.4408759 8.0518073 4.4408759 10.7013021" fill="#e7364b"/><path d="m34.4310731 37.2383172-.3004992-.6745511c.0673533-.0302588 6.8263664-2.9838182 14.9531693-2.9838182 8.1593694 0 12.6024657 2.8908276 12.7875022 3.0140771l-.4100409.6140333c-.0436686-.0287828-4.4593795-2.8900896-12.3774613-2.8900896-7.9713723 0-14.5867971 2.8908277-14.6526701 2.9203485" fill="#c5e2e0"/></g></g></svg>

<?xml version="1.0" encoding="UTF-8"?>
<svg width="113px" height="89px" viewBox="0 0 113 89" version="1.1" xmlns="http://www.w3.org/2000/svg" xmlns:xlink="http://www.w3.org/1999/xlink">
    <title>Group 16</title>
    <defs>
        <polygon id="path-1" points="0.234034161 0 100.89374 0 100.89374 69.3739583 0.234034161 69.3739583"></polygon>
        <polygon id="path-3" points="0.234034161 0 100.89374 0 100.89374 70.85 0.234034161 70.85"></polygon>
    </defs>
    <g id="Page-1" stroke="none" stroke-width="1" fill="none" fill-rule="evenodd">
        <g id="QUELS-PRODUITS-DEPOSER" transform="translate(-1349.000000, -767.000000)">
            <g id="Group-16" transform="translate(1349.418760, 767.934223)">
                <g id="Group-14" transform="translate(56.081240, 43.690777) rotate(-10.000000) translate(-56.081240, -43.690777) translate(5.381240, 8.265777)">
                    <g id="Group-62">
                        <mask id="mask-2" fill="white">
                            <use xlink:href="#path-1"></use>
                        </mask>
                        <g id="Clip-61"></g>
                        <path d="M98.6734502,0 C84.6106765,4.428125 26.1391436,8.11822917 2.45447212,0 L0.234034161,15.4984375 C0.234034161,15.4984375 35.0208955,54.6135417 36.5011874,67.1598958 C36.5011874,67.1598958 41.6822093,69.3739583 49.8238152,69.3739583 C57.965421,69.3739583 64.6267349,67.1598958 64.6267349,67.1598958 C66.1070269,54.6135417 100.893888,15.4984375 100.893888,15.4984375 L98.6734502,0 Z" id="Fill-60" fill="#C5E2E0" mask="url(#mask-2)"></path>
                    </g>
                    <path d="M25.8450096,47.347579 C25.8450096,47.347579 43.1622053,45.0191232 49.0833731,45.0191232 C55.004541,45.0191232 75.2830607,47.347579 75.2830607,47.347579 C75.2830607,47.347579 66.249579,59.0688258 64.6264388,67.1597482 C63.8862928,70.8498524 37.2410374,70.1118316 36.5008914,67.1597482 C35.7607454,64.2076649 25.8450096,47.347579 25.8450096,47.347579" id="Fill-63" fill="#E7364B"></path>
                    <g id="Group-67">
                        <mask id="mask-4" fill="white">
                            <use xlink:href="#path-3"></use>
                        </mask>
                        <g id="Clip-66"></g>
                        <path d="M98.6734502,0 C83.4671509,3.44581927 51.36924,4.31742187 47.9734502,4.41779271 C44.5776604,4.31742187 17.6607714,3.44581927 2.45447212,0 L0.234034161,16.2364583 C0.234034161,16.2364583 26.8792896,22.8786458 31.3201655,33.2109375 C43.1921072,60.8321052 40.2019174,61.2557292 36.5011874,67.1598958 C36.5011874,67.1598958 37.9548342,70.85 48.3435232,70.85 C58.705567,70.85 63.8865889,69.3739583 64.6267349,67.1598958 C65.6733013,64.0284734 54.7687305,61.6092411 64.6267349,33.2109375 C71.2880488,14.0223958 100.893888,15.4984375 100.893888,15.4984375 L98.6734502,0 Z" id="Fill-65" fill="#FFFFFF" mask="url(#mask-4)"></path>
                    </g>
                    <path d="M53.5245451,21.7716146 C53.5245451,24.4211094 51.3707203,26.56875 48.7135962,26.56875 C46.0564721,26.56875 43.9026473,24.4211094 43.9026473,21.7716146 C43.9026473,19.1221198 49.0836692,11.0703125 49.0836692,11.0703125 C49.0836692,11.0703125 53.5245451,19.1221198 53.5245451,21.7716146" id="Fill-68" fill="#E7364B"></path>
                    <path d="M34.4310731,37.2383172 L34.1305739,36.5637661 C34.1979272,36.5335073 40.9569403,33.5799479 49.0837432,33.5799479 C57.2431126,33.5799479 61.6862089,36.4707755 61.8712454,36.594025 L61.4612045,37.2080583 C61.4175359,37.1792755 57.001825,34.3179687 49.0837432,34.3179687 C41.1123709,34.3179687 34.4969461,37.2087964 34.4310731,37.2383172" id="Fill-70" fill="#C5E2E0"></path>
                </g>
            </g>
        </g>
    </g>
</svg>
